X:3
T:2. Mon amy
T:(Ronde 2)
C:Tielman Susato
S:Tileman Susato: Danserye (1551)
R:Ronde
M:4/2
L:1/2
T: Tenor
K:C -8va
DDF/2E/2F/2G/2|A3/2G/4F/4GA|e>d c/2A/2B|c>BAA::c/2B/2c/2d/2e>d|c>BAF|G>GDF|
E2D2::FFGE|F/2G/2A/2F/2GE|F/2G/2A/2F/2GE|FA_BA|FFFA|_BAF2:|
